svg/device/stopwatch_fill.svg

<?xml version="1.0" encoding="UTF-8"?>
<svg width="24px" height="24px" viewBox="0 0 24 24" version="1.1" xmlns="http://www.w3.org/2000/svg" xmlns:xlink="http://www.w3.org/1999/xlink">
    <title>stopwatch_fill</title>
    <g id="页面-1" stroke="none" stroke-width="1" fill="none" fill-rule="evenodd">
        <g id="Device" transform="translate(-672.000000, -48.000000)" fill-rule="nonzero">
            <g id="stopwatch_fill" transform="translate(672.000000, 48.000000)">
                 <path d="M24,0 L24,24 L0,24 L0,0 L24,0 Z M12.5934901,23.257841 L12.5819402,23.2595131 L12.5108777,23.2950439 L12.4918791,23.2987469 L12.4918791,23.2987469 L12.4767152,23.2950439 L12.4056548,23.2595131 C12.3958229,23.2563662 12.3870493,23.2590235 12.3821421,23.2649074 L12.3780323,23.275831 L12.360941,23.7031097 L12.3658947,23.7234994 L12.3769048,23.7357139 L12.4804777,23.8096931 L12.4953491,23.8136134 L12.4953491,23.8136134 L12.5071152,23.8096931 L12.6106902,23.7357139 L12.6232938,23.7196733 L12.6232938,23.7196733 L12.6266527,23.7031097 L12.609561,23.275831 C12.6075724,23.2657013 12.6010112,23.2592993 12.5934901,23.257841 L12.5934901,23.257841 Z M12.8583906,23.1452862 L12.8445485,23.1473072 L12.6598443,23.2396597 L12.6498822,23.2499052 L12.6498822,23.2499052 L12.6471943,23.2611114 L12.6650943,23.6906389 L12.6699349,23.7034178 L12.6699349,23.7034178 L12.678386,23.7104931 L12.8793402,23.8032389 C12.8914285,23.8068999 12.9022333,23.8029875 12.9078286,23.7952264 L12.9118235,23.7811639 L12.8776777,23.1665331 C12.8752882,23.1545897 12.8674102,23.1470016 12.8583906,23.1452862 L12.8583906,23.1452862 Z M12.1430473,23.1473072 C12.1332178,23.1423925 12.1221763,23.1452606 12.1156365,23.1525954 L12.1099173,23.1665331 L12.0757714,23.7811639 C12.0751323,23.7926639 12.0828099,23.8018602 12.0926481,23.8045676 L12.108256,23.8032389 L12.3092106,23.7104931 L12.3186497,23.7024347 L12.3186497,23.7024347 L12.3225043,23.6906389 L12.340401,23.2611114 L12.337245,23.2485176 L12.337245,23.2485176 L12.3277531,23.2396597 L12.1430473,23.1473072 Z" id="MingCute" fill-rule="nonzero"></path>
                <path d="M12,2 C12.9367,2 13.8495,2.10751 14.7263,2.31129 C15.2643,2.43631 15.599,2.97376 15.474,3.5117 C15.349,4.04965 14.8116,4.3844 14.2736,4.25938 C13.7873333,4.14636 13.2870222,4.06875333 12.7754519,4.02957333 L12.355,4.006 L12.694058,4.02636471 C14.1829554,4.1399178 15.570527,4.61575227 16.7688607,5.36590765 L17.042,5.54385 L17.6484,4.93751 C18.0389,4.54699 18.6721,4.54699 19.0626,4.93751 C19.4230615,5.29799923 19.4507893,5.86522645 19.1457834,6.25752152 L19.0626,6.35173 L18.5678,6.84654 C20.0763,8.45595 21,10.6201 21,13 C21,17.9706 16.9706,22 12,22 C7.02944,22 3,17.9706 3,13 C3,8.20696 6.74675315,4.28901755 11.4711809,4.01527809 L11.67,4.006 L11.6102933,4.00744042 C11.0932664,4.02721875 10.5867988,4.08617708 10.0936609,4.18130208 L9.72635,4.25938 C9.1884,4.3844 8.65096,4.04965 8.52594,3.5117 C8.40092,2.97376 8.73566,2.43631 9.27361,2.31129 C10.1505,2.10751 11.0633,2 12,2 Z M12,8 C11.4477,8 11,8.44772 11,9 L11,13 C11,13.5523 11.4477,14 12,14 C12.5523,14 13,13.5523 13,13 L13,9 C13,8.44772 12.5523,8 12,8 Z" id="形状" fill="#09244B"></path>
            </g>
        </g>
    </g>
</svg>

<svg xmlns="http://www.w3.org/2000/svg" width="24" height="24"><g fill="none" fill-rule="nonzero"><path d="M24 0v24H0V0h24ZM12.593 23.258l-.011.002-.071.035-.02.004-.014-.004-.071-.035c-.01-.004-.019-.001-.024.005l-.004.01-.017.428.005.02.01.013.104.074.015.004.012-.004.104-.074.012-.016.004-.017-.017-.427c-.002-.01-.009-.017-.017-.018Zm.265-.113-.013.002-.185.093-.01.01-.003.011.018.43.005.012.008.007.201.093c.012.004.023 0 .029-.008l.004-.014-.034-.614c-.003-.012-.01-.02-.02-.022Zm-.715.002a.023.023 0 0 0-.027.006l-.006.014-.034.614c0 .012.007.02.017.024l.015-.002.201-.093.01-.008.004-.011.017-.43-.003-.012-.01-.01-.184-.092Z"/><path fill="#09244B" d="M12 2c.937 0 1.85.108 2.726.311a1 1 0 1 1-.452 1.948 9.982 9.982 0 0 0-1.499-.23l-.42-.023.34.02a8.947 8.947 0 0 1 4.074 1.34l.273.178.606-.606a1 1 0 0 1 1.498 1.32l-.083.094-.495.495a9 9 0 1 1-7.097-2.831l.199-.01-.06.001c-.517.02-1.023.08-1.516.174l-.368.078a1 1 0 0 1-.452-1.948C10.15 2.108 11.064 2 12 2Zm0 6a1 1 0 0 0-1 1v4a1 1 0 1 0 2 0V9a1 1 0 0 0-1-1Z"/></g></svg>
